X: 123
T:L'inconnu de Limoise
M:3/4
L:1/8
S:J F Heintzen
R:Mazurka
Z:Steve Mansfield
K:G
D G>A | B2 B>BcA | B2 B>Bc>d | c2 c>B A>G | D3 D G>A | B2 B>BcA |
B2 B>Bc>d | c2 c>B A>G | A3 :: B c>d | e2 g>f e>f | d3 c B>A | G>F G>A B>G |
D4 G>F | E2E>F G>A | G2F2E2 |1 F2 F>G A>B | A3 :|2 F2F>G A>F | G3 ||

